img/jar.svg

<svg width="366" height="288" viewBox="0 0 366 288" fill="none" xmlns="http://www.w3.org/2000/svg">
<path fill-rule="evenodd" clip-rule="evenodd" d="M72.0948 56.506V42H3.26115L3.00356 50.7347L11.9996 51C3.00356 50.7347 3.00351 50.7362 3.00346 50.7379L3.0016 50.804L2.99727 50.9709C2.99368 51.1141 2.98885 51.3209 2.98344 51.5882C2.9726 52.1229 2.95946 52.8999 2.94939 53.8953C2.92929 55.8855 2.92155 58.7514 2.96971 62.3001C3.06593 69.3902 3.38577 79.2426 4.28249 90.3049C6.04926 112.101 10.1381 139.83 19.9157 160.142C26.5914 174.009 38.0692 188.816 48.2797 200.594L44.6968 204.065C36.2822 212.218 36.166 225.679 44.4386 233.975L45.2934 234.833C53.4993 243.062 66.8288 243.062 75.0347 234.833L81.2721 228.577L106.66 232.4L109.34 214.6L82.3007 210.529C81.3509 209.598 80.0945 208.353 78.6004 206.841C75.0496 203.248 70.1754 198.167 64.892 192.231C54.1633 180.177 42.3594 165.266 36.1344 152.334C27.8872 135.202 23.9633 110.313 22.2236 88.8505C21.3671 78.2837 21.0602 68.8473 20.968 62.0558C20.9583 61.3402 20.951 60.6543 20.9457 60H45.3731L99.9075 97.4209L110.092 82.5791L72.0948 56.506ZM65.3564 219.046L62.2884 222.123C61.1162 223.299 59.2119 223.299 58.0397 222.123L57.1849 221.266C56.0031 220.081 56.0197 218.158 57.2217 216.993L60.3946 213.919C62.2124 215.83 63.8842 217.552 65.3564 219.046Z" fill="black"/>
<path fill-rule="evenodd" clip-rule="evenodd" d="M293.905 56.506V42H362.739L362.996 50.7347L354 51C362.996 50.7347 362.996 50.7362 362.997 50.7379L362.998 50.804L363.003 50.9709C363.006 51.1141 363.011 51.3209 363.017 51.5882C363.027 52.1229 363.041 52.8999 363.051 53.8953C363.071 55.8855 363.078 58.7514 363.03 62.3001C362.934 69.3902 362.614 79.2426 361.718 90.3049C359.951 112.101 355.862 139.83 346.084 160.142C339.409 174.009 327.931 188.816 317.72 200.594L321.303 204.065C329.718 212.218 329.834 225.679 321.561 233.975L320.707 234.833C312.501 243.062 299.171 243.062 290.965 234.833L284.728 228.577L259.34 232.4L256.66 214.6L283.699 210.529C284.649 209.598 285.905 208.353 287.4 206.841C290.95 203.248 295.825 198.167 301.108 192.231C311.837 180.177 323.641 165.266 329.866 152.334C338.113 135.202 342.037 110.313 343.776 88.8505C344.633 78.2837 344.94 68.8473 345.032 62.0558C345.042 61.3402 345.049 60.6543 345.054 60H320.627L266.093 97.4209L255.908 82.5791L293.905 56.506ZM300.644 219.046L303.712 222.123C304.884 223.299 306.788 223.299 307.96 222.123L308.815 221.266C309.997 220.081 309.98 218.158 308.778 216.993L305.605 213.919C303.788 215.83 302.116 217.552 300.644 219.046Z" fill="black"/>
<path fill-rule="evenodd" clip-rule="evenodd" d="M3 42H72V57H87V75H81V63H66V48H3V42Z" fill="#414141"/>
<path d="M96 270V258C96 258 63 219 63 159C63 99 87 39 87 39V27H183V270H96Z" fill="black"/>
<path d="M276 0H180V21H267L276 12V0Z" fill="black"/>
<path d="M276 288H180V267H267L276 276V288Z" fill="black"/>
<path d="M270 270V258C270 258 303 219 303 159C303 99 279 39 279 39V27H183V270H270Z" fill="black"/>
<path d="M90 0H186V21H99L90 12V0Z" fill="black"/>
<path d="M90 288H186V267H99L90 276V288Z" fill="black"/>
<path opacity="0.1" fill-rule="evenodd" clip-rule="evenodd" d="M126 144C126 175.48 151.52 201 183 201C214.48 201 240 175.48 240 144C240 112.52 214.48 87 183 87C151.52 87 126 112.52 126 144ZM120 144C120 178.794 148.206 207 183 207C217.794 207 246 178.794 246 144C246 109.206 217.794 81 183 81C148.206 81 120 109.206 120 144Z" fill="#414141"/>
<path opacity="0.1" fill-rule="evenodd" clip-rule="evenodd" d="M147.323 172.215C158.757 174.78 173.927 174.384 189.988 170.08C206.049 165.776 219.385 158.535 228.005 150.596C236.86 142.44 239.549 134.813 238.058 129.247C236.567 123.682 230.424 118.421 218.677 115.785C207.243 113.22 192.073 113.616 176.012 117.92C159.951 122.224 146.615 129.465 137.996 137.404C129.141 145.56 126.451 153.187 127.942 158.753C129.434 164.318 135.577 169.579 147.323 172.215ZM122.147 160.306C126.864 177.91 157.933 184.881 191.541 175.876C225.15 166.87 248.571 145.299 243.854 127.694C239.136 110.09 208.068 103.119 174.459 112.124C140.851 121.13 117.43 142.701 122.147 160.306Z" fill="#414141"/>
<path d="M219 144C219 144 201 156 183 156C165 156 147 144 147 144C147 144 165 132 183 132C201 132 219 144 219 144Z" fill="white"/>
<path d="M192 144C192 148.971 187.971 153 183 153C178.029 153 174 148.971 174 144C174 139.029 178.029 135 183 135C187.971 135 192 139.029 192 144Z" fill="black"/>
<path fill-rule="evenodd" clip-rule="evenodd" d="M93 21L164.162 21L170.162 39L186 39L186 97.7801L239.693 152.886L281.992 96L289.5 96L289.5 79.5L295.5 79.5L295.5 102L285.008 102L240.307 162.114L180 100.22L180 45L165.838 45L159.838 27L93 27L93 21ZM273 27L171 27L171 21L273 21L273 27Z" fill="#414141"/>
<path fill-rule="evenodd" clip-rule="evenodd" d="M96 270L177 270L177 258L186 258L186 187.514L121.013 138L63 138L63 144L99 144L99 201.75L123 246.75L123 258L129 258L129 245.25L105 200.25L105 144L118.987 144L180 190.486L180 252L171 252L171 264L96 264L96 270ZM267 264L183 264L183 270L273 270L273 258.849L284.555 240.072L279.445 236.928L267 257.151L267 264ZM222 262.119L222 264L216 264L216 259.881L237.13 235.5L252 235.5L252 264L246 264L246 241.5L239.87 241.5L222 262.119ZM117 57L141 57L141 24L135 24L135 51L123 51L123 43.3014L108 34.3015L108 25.5L102 25.5L102 37.6986L117 46.6985L117 57Z" fill="#414141"/>
<path d="M123 140.8L159 192H225L237 160L225 96H195L129 115.2L123 140.8Z" fill="black"/>
<path fill-rule="evenodd" clip-rule="evenodd" d="M155.883 198L116.543 142.05L123.957 110.418L194.144 90H229.978L243.204 160.539L229.157 198H155.883ZM158.999 192L122.999 140.8L128.999 115.2L194.999 96H224.999L236.999 160L224.999 192H158.999Z" fill="#414141"/>
<path d="M219 144C219 144 201 156 183 156C165 156 147 144 147 144C147 144 165 132 183 132C201 132 219 144 219 144Z" fill="white"/>
<path d="M192 144C192 148.971 187.971 153 183 153C178.029 153 174 148.971 174 144C174 139.029 178.029 135 183 135C187.971 135 192 139.029 192 144Z" fill="black"/>
<path d="M219 0H264V12L255 21H264V111H219V21H210L219 12V0Z" fill="#D9D9D9"/>
<path d="M258 64.5C258 73.6127 250.613 81 241.5 81C232.387 81 225 73.6127 225 64.5C225 55.3873 232.387 48 241.5 48C250.613 48 258 55.3873 258 64.5Z" fill="#C64545"/>
<path d="M225 30H249V33H225V30Z" fill="black"/>
<path d="M231 30L231 42L228 42L228 30L231 30Z" fill="black"/>
<path d="M231 0L231 12L228 12L228 -1.31134e-07L231 0Z" fill="black"/>
<path d="M237 36L237 48L234 48L234 36L237 36Z" fill="black"/>
<path d="M231 48L231 60L228 60L228 48L231 48Z" fill="black"/>
<path d="M240 57L228 57L228 54L240 54L240 57Z" fill="black"/>
<path d="M240 72L228 72L228 69L240 69L240 72Z" fill="black"/>
<path d="M240 78L228 78L228 75L240 75L240 78Z" fill="black"/>
<path d="M249 102L228 102L228 99L249 99L249 102Z" fill="black"/>
<path d="M228 81L228 69L231 69L231 81L228 81Z" fill="black"/>
<path d="M228 99L228 87L231 87L231 99L228 99Z" fill="black"/>
<path d="M237 99L237 87L240 87L240 99L237 99Z" fill="black"/>
<path d="M234 93L228 93L228 90L234 90L234 93Z" fill="black"/>
<path d="M240 63L234 63L234 60L240 60L240 63Z" fill="black"/>
<path d="M249 57L246 57L246 54L249 54L249 57Z" fill="black"/>
<path d="M249 78L246 78L246 75L249 75L249 78Z" fill="black"/>
<path d="M249 24L246 24L246 21L249 21L249 24Z" fill="black"/>
<path d="M240 24L234 24L234 21L240 21L240 24Z" fill="black"/>
<path d="M231 24L225 24L225 21L231 21L231 24Z" fill="black"/>
<path d="M249 3L225 3L225 -4.76206e-08L249 -2.14577e-06L249 3Z" fill="black"/>
<path d="M180 198H186V204H180V198Z" fill="#D9D9D9"/>
<path opacity="0.4" d="M75 138H99V144H75V138Z" fill="#D9D9D9"/>
<path d="M0 42H12V48H0V42Z" fill="#595959"/>
<path d="M354 42H366V48H354V42Z" fill="black"/>
<path opacity="0.4" d="M102 21H132V27H102V21Z" fill="#D9D9D9"/>
<path opacity="0.3" d="M102 264H129V270H102V264Z" fill="#D9D9D9"/>
</svg>

<svg xmlns="http://www.w3.org/2000/svg" width="366" height="288" fill="none" viewBox="0 0 366 288"><path fill="#000" fill-rule="evenodd" d="M72.095 56.506V42H3.26l-.257 8.735L12 51c-8.996-.265-8.996-.264-8.997-.262l-.001.066-.005.167-.014.617c-.01.535-.024 1.312-.034 2.307-.02 1.99-.027 4.856.02 8.405.097 7.09.417 16.943 1.313 28.005 1.767 21.796 5.856 49.525 15.634 69.837 6.675 13.867 18.153 28.674 28.364 40.452l-3.583 3.471c-8.415 8.153-8.531 21.614-.258 29.91l.854.858c8.206 8.229 21.536 8.229 29.742 0l6.237-6.256 25.388 3.823 2.68-17.8-27.04-4.071c-.95-.931-2.206-2.176-3.7-3.688a389.3 389.3 0 0 1-13.708-14.61c-10.729-12.054-22.533-26.965-28.758-39.897-8.247-17.132-12.17-42.021-13.91-63.484A404.252 404.252 0 0 1 20.946 60h24.427l54.535 37.42 10.184-14.84-37.997-26.074Zm-6.739 162.54-3.068 3.077a3 3 0 0 1-4.248 0l-.855-.857a3 3 0 0 1 .037-4.273l3.173-3.074a406.083 406.083 0 0 0 4.961 5.127ZM293.905 56.506V42h68.834l.257 8.735L354 51c8.996-.265 8.996-.264 8.997-.262l.001.066.005.167.014.617c.01.535.024 1.312.034 2.307.02 1.99.027 4.856-.021 8.405a422.45 422.45 0 0 1-1.312 28.005c-1.767 21.796-5.856 49.525-15.634 69.837-6.675 13.867-18.153 28.674-28.364 40.452l3.583 3.471c8.415 8.153 8.531 21.614.258 29.91l-.854.858c-8.206 8.229-21.536 8.229-29.742 0l-6.237-6.256-25.388 3.823-2.68-17.8 27.039-4.071a334.4 334.4 0 0 0 3.701-3.688 389.671 389.671 0 0 0 13.708-14.61c10.729-12.054 22.533-26.965 28.758-39.897 8.247-17.132 12.171-42.021 13.91-63.484A403.81 403.81 0 0 0 345.054 60h-24.427l-54.534 37.42-10.185-14.84 37.997-26.074Zm6.739 162.54 3.068 3.077a2.998 2.998 0 0 0 4.248 0l.855-.857a3 3 0 0 0-.037-4.273l-3.173-3.074a402.278 402.278 0 0 1-4.961 5.127Z" clip-rule="evenodd"/><path fill="#414141" fill-rule="evenodd" d="M3 42h69v15h15v18h-6V63H66V48H3v-6Z" clip-rule="evenodd"/><path fill="#000" d="M96 270v-12s-33-39-33-99S87 39 87 39V27h96v243H96ZM276 0h-96v21h87l9-9V0Z"/><path fill="#000" d="M276 288h-96v-21h87l9 9v12Z"/><path fill="#000" d="M270 270v-12s33-39 33-99-24-120-24-120V27h-96v243h87ZM90 0h96v21H99l-9-9V0Z"/><path fill="#000" d="M90 288h96v-21H99l-9 9v12Z"/><path fill="#414141" fill-rule="evenodd" d="M126 144c0 31.48 25.52 57 57 57s57-25.52 57-57-25.52-57-57-57-57 25.52-57 57Zm-6 0c0 34.794 28.206 63 63 63s63-28.206 63-63-28.206-63-63-63-63 28.206-63 63Z" clip-rule="evenodd" opacity=".1"/><path fill="#414141" fill-rule="evenodd" d="M147.323 172.215c11.434 2.565 26.604 2.169 42.665-2.135s29.397-11.545 38.017-19.484c8.855-8.156 11.544-15.783 10.053-21.349-1.491-5.565-7.634-10.826-19.381-13.462-11.434-2.565-26.604-2.169-42.665 2.135s-29.397 11.545-38.016 19.484c-8.855 8.156-11.545 15.783-10.054 21.349 1.492 5.565 7.635 10.826 19.381 13.462Zm-25.176-11.909c4.717 17.604 35.786 24.575 69.394 15.57 33.609-9.006 57.03-30.577 52.313-48.182-4.718-17.604-35.786-24.575-69.395-15.57-33.608 9.006-57.029 30.577-52.312 48.182Z" clip-rule="evenodd" opacity=".1"/><path fill="#fff" d="M219 144s-18 12-36 12-36-12-36-12 18-12 36-12 36 12 36 12Z"/><path fill="#000" d="M192 144a9 9 0 0 1-9 9 9 9 0 0 1-9-9 9 9 0 0 1 9-9 9 9 0 0 1 9 9Z"/><path fill="#414141" fill-rule="evenodd" d="M93 21h71.162l6 18H186v58.78l53.693 55.106L281.992 96h7.508V79.5h6V102h-10.492l-44.701 60.114L180 100.22V45h-14.162l-6-18H93v-6Zm180 6H171v-6h102v6Z" clip-rule="evenodd"/><path fill="#414141" fill-rule="evenodd" d="M96 270h81v-12h9v-70.486L121.013 138H63v6h36v57.75l24 45V258h6v-12.75l-24-45V144h13.987L180 190.486V252h-9v12H96v6Zm171-6h-84v6h90v-11.151l11.555-18.777-5.11-3.144L267 257.151V264Zm-45-1.881V264h-6v-4.119l21.13-24.381H252V264h-6v-22.5h-6.13L222 262.119ZM117 57h24V24h-6v27h-12v-7.699l-15-9V25.5h-6v12.199l15 9V57Z" clip-rule="evenodd"/><path fill="#000" d="m123 140.8 36 51.2h66l12-32-12-64h-30l-66 19.2-6 25.6Z"/><path fill="#414141" fill-rule="evenodd" d="m155.883 198-39.34-55.95 7.414-31.632L194.144 90h35.834l13.226 70.539L229.157 198h-73.274Zm3.116-6-36-51.2 6-25.6 66-19.2h30l12 64-12 32h-66Z" clip-rule="evenodd"/><path fill="#fff" d="M219 144s-18 12-36 12-36-12-36-12 18-12 36-12 36 12 36 12Z"/><path fill="#000" d="M192 144a9 9 0 0 1-9 9 9 9 0 0 1-9-9 9 9 0 0 1 9-9 9 9 0 0 1 9 9Z"/><path fill="#D9D9D9" d="M219 0h45v12l-9 9h9v90h-45V21h-9l9-9V0Z"/><path fill="#C64545" d="M258 64.5c0 9.113-7.387 16.5-16.5 16.5S225 73.613 225 64.5 232.387 48 241.5 48 258 55.387 258 64.5Z"/><path fill="#000" d="M225 30h24v3h-24v-3Z"/><path fill="#000" d="M231 30v12h-3V30h3ZM231 0v12h-3V0h3ZM237 36v12h-3V36h3ZM231 48v12h-3V48h3Z"/><path fill="#000" d="M240 57h-12v-3h12v3ZM240 72h-12v-3h12v3ZM240 78h-12v-3h12v3ZM249 102h-21v-3h21v3Z"/><path fill="#000" d="M228 81V69h3v12h-3ZM228 99V87h3v12h-3ZM237 99V87h3v12h-3Z"/><path fill="#000" d="M234 93h-6v-3h6v3ZM240 63h-6v-3h6v3ZM249 57h-3v-3h3v3ZM249 78h-3v-3h3v3ZM249 24h-3v-3h3v3ZM240 24h-6v-3h6v3ZM231 24h-6v-3h6v3ZM249 3h-24V0h24v3Z"/><path fill="#D9D9D9" d="M180 198h6v6h-6v-6Z"/><path fill="#D9D9D9" d="M75 138h24v6H75v-6Z" opacity=".4"/><path fill="#595959" d="M0 42h12v6H0v-6Z"/><path fill="#000" d="M354 42h12v6h-12v-6Z"/><path fill="#D9D9D9" d="M102 21h30v6h-30v-6Z" opacity=".4"/><path fill="#D9D9D9" d="M102 264h27v6h-27v-6Z" opacity=".3"/></svg>
